Sources/FrostedUI/Resources/Icons.xcassets/cube16.imageset/cube-16.svg

<svg width="16" height="16" viewBox="0 0 16 16" fill="none" xmlns="http://www.w3.org/2000/svg" data-fui-icon="true">
  <path
    d="M8 0.5C8.47074 0.5 8.93294 0.625902 9.33887 0.864258L13.9043 3.54492C14.583 3.94367 14.9999 4.67182 15 5.45898V10.541C14.9999 11.3282 14.583 12.0563 13.9043 12.4551L9.33887 15.1357C8.93294 15.3741 8.47074 15.5 8 15.5C7.52926 15.5 7.06706 15.3741 6.66113 15.1357L2.0957 12.4551C1.41702 12.0563 1.0001 11.3282 1 10.541V5.45898C1.0001 4.67182 1.41702 3.94367 2.0957 3.54492L6.66113 0.864258C7.06706 0.625902 7.52926 0.5 8 0.5ZM8 2C7.79643 2 7.59648 2.05421 7.4209 2.15723L2.85547 4.83789C2.63527 4.96722 2.5001 5.20362 2.5 5.45898V10.541C2.5001 10.7964 2.63527 11.0328 2.85547 11.1621L7.4209 13.8428C7.59648 13.9458 7.79643 14 8 14C8.20357 14 8.40352 13.9458 8.5791 13.8428L13.1445 11.1621C13.3647 11.0328 13.4999 10.7964 13.5 10.541V5.45898C13.4999 5.20362 13.3647 4.96722 13.1445 4.83789L8.5791 2.15723C8.40352 2.05421 8.20357 2 8 2ZM3.7002 5.51074C3.89746 5.14693 4.35273 5.0121 4.7168 5.20898L7.99707 6.9834L11.2783 5.20898C11.6424 5.01196 12.0976 5.14699 12.2949 5.51074C12.492 5.87497 12.3563 6.33014 11.9922 6.52734L8.74512 8.28516V12.1416C8.74509 12.5558 8.40932 12.8916 7.99512 12.8916C7.58096 12.8916 7.24514 12.5558 7.24512 12.1416V8.28223L4.00293 6.52734C3.63894 6.33008 3.50312 5.8749 3.7002 5.51074Z"
    fill="currentColor"
  />
</svg>

<svg xmlns="http://www.w3.org/2000/svg" width="16" height="16" fill="none" data-fui-icon="true" viewBox="0 0 16 16"><path fill="currentColor" d="M8 .5c.47 0 .933.126 1.339.364l4.565 2.68A2.22 2.22 0 0 1 15 5.46v5.082a2.22 2.22 0 0 1-1.096 1.914l-4.565 2.68a2.64 2.64 0 0 1-2.678 0l-4.565-2.68A2.22 2.22 0 0 1 1 10.541V5.459a2.22 2.22 0 0 1 1.096-1.914L6.66.865A2.64 2.64 0 0 1 8 .5M8 2c-.204 0-.404.054-.58.157l-4.565 2.68a.72.72 0 0 0-.355.622v5.082a.72.72 0 0 0 .355.621l4.566 2.68a1.15 1.15 0 0 0 1.158 0l4.566-2.68a.72.72 0 0 0 .355-.621V5.459a.72.72 0 0 0-.355-.621l-4.566-2.68A1.14 1.14 0 0 0 8 2M3.7 5.51a.75.75 0 0 1 1.017-.301l3.28 1.774 3.281-1.774a.75.75 0 0 1 .714 1.318L8.745 8.285v3.857a.75.75 0 0 1-1.5 0v-3.86L4.003 6.527A.75.75 0 0 1 3.7 5.511"/></svg>
